T: I'll Mend Your Pots And Kettles - O
M: 4/4
L: 1/8
K: Gmaj
|:B/c/|dggf/g/ afg2 |dgge/g/ fdd>c|dggf/g/ afg2   |d>cAd BGG   :|
[|D   |GGBB    d>edA|BdcA    AGG>A|BBcB/c/ dggf/g/|a>gag fdd>c  |
BBcB/c/ dgg>a|bgaf    g2g>a|bgaf    gdd2   |d>cAd BGG   |]
